source/img/footer-vk-mobile.svg

<svg width="25" height="15" viewBox="0 0 25 15" fill="none" xmlns="http://www.w3.org/2000/svg">
<path d="M24.7772 13.3791C24.71 13.2607 24.2943 12.311 22.2942 10.3589C20.2003 8.31472 20.4815 8.64665 23.0036 5.11213C24.5397 2.95954 25.1538 1.64498 24.9616 1.08301C24.7787 0.547324 23.649 0.688639 23.649 0.688639L19.8924 0.711644C19.8924 0.711644 19.6143 0.672207 19.4065 0.80202C19.2049 0.930189 19.0752 1.22596 19.0752 1.22596C19.0752 1.22596 18.4798 2.89217 17.686 4.3086C16.0125 7.29758 15.3421 7.45533 15.0686 7.26965C14.4327 6.83748 14.592 5.53114 14.592 4.60438C14.592 1.70742 15.0093 0.499671 13.7779 0.187464C13.3685 0.0839423 13.0685 0.014928 12.0231 0.00342559C10.6824 -0.0113632 9.54636 0.00835518 8.90413 0.338638C8.47597 0.558826 8.14626 1.05014 8.34784 1.07808C8.59629 1.11258 9.15883 1.23747 9.45729 1.6647C9.84326 2.21517 9.8292 3.45414 9.8292 3.45414C9.8292 3.45414 10.0511 6.86378 9.31197 7.28772C8.80412 7.57857 8.10876 6.98537 6.61646 4.27245C5.85234 2.88395 5.27417 1.34756 5.27417 1.34756C5.27417 1.34756 5.16323 1.06165 4.96478 0.908828C4.72413 0.723146 4.38661 0.663991 4.38661 0.663991L0.814471 0.686996C0.814471 0.686996 0.278494 0.703428 0.0816048 0.948265C-0.093408 1.16681 0.0675413 1.61705 0.0675413 1.61705C0.0675413 1.61705 2.86462 8.49711 6.03048 11.9659C8.93538 15.1455 12.2325 14.9368 12.2325 14.9368H13.7264C13.7264 14.9368 14.178 14.8842 14.4077 14.623C14.6202 14.383 14.6124 13.9328 14.6124 13.9328C14.6124 13.9328 14.5827 11.8246 15.514 11.514C16.4312 11.2084 17.6095 13.5516 18.858 14.4537C19.8018 15.1356 20.519 14.9861 20.519 14.9861L23.8584 14.9368C23.8584 14.9368 25.6054 14.8234 24.7772 13.3791Z" fill="white"/>
</svg>

<svg width="25" height="15" fill="none" xmlns="http://www.w3.org/2000/svg"><path d="M24.777 13.38c-.067-.12-.483-1.069-2.483-3.021-2.094-2.044-1.813-1.712.71-5.247 1.536-2.152 2.15-3.467 1.958-4.029-.183-.536-1.313-.394-1.313-.394l-3.757.023s-.278-.04-.485.09c-.202.128-.332.424-.332.424s-.595 1.666-1.389 3.083c-1.674 2.989-2.344 3.146-2.617 2.96-.636-.432-.477-1.738-.477-2.665 0-2.897.417-4.104-.814-4.417-.41-.103-.71-.172-1.755-.184-1.34-.014-2.477.005-3.119.336-.428.22-.758.711-.556.74.248.034.81.158 1.11.586.385.55.371 1.79.371 1.79s.222 3.409-.517 3.833c-.508.29-1.203-.303-2.696-3.016a25.897 25.897 0 01-1.342-2.924s-.11-.286-.31-.44c-.24-.185-.577-.244-.577-.244L.814.687S.278.703.082.948c-.175.219-.014.67-.014.67 0-.001 2.797 6.88 5.962 10.348 2.905 3.18 6.202 2.97 6.202 2.97h1.494s.452-.052.682-.313c.212-.24.204-.69.204-.69s-.03-2.108.902-2.419c.917-.306 2.096 2.038 3.344 2.94.944.682 1.661.532 1.661.532l3.34-.05s1.746-.113.918-1.557z" fill="#fff"/></svg>
